X:4905
T:Pachelbel's Frolics
O:england
R:air
S:Eileen Ivers (first album)
M:2/2
L:1/8
Q:80
K:D
dcde fefg|~a3b agfd|~B3c ~d3B|ABGA F2DF|
GFGA BABc|dcde fga2|gfed (3Bcd ef|1 gedc d3A:|2 gedc d2fg||
~a2fa dafa|~a2ea caea|~f2df Bfdf|AGAB =cAFD|
GFGA BABc|dcde fga2|gfed (3Bcd ef|1 gedc d2fg:|2 gedc d3A||


